X:0410
T:Haughs o' Cromdale
P:Haughs o' Cromdale
C:Traditional
R:Strathspey (8x16)
B:RSCDS 4-10
Z:Anselm Lingnau <anselm@strathspey.org>
M:4/4
L:1/8
K:Am
a|"Am"e<A A>B "Em7"e>d B<d|"Am"e<A A>B "Em"G>A B<d|\
  "Am"e<A A>B "Em7"e>d B<d|"Am"e>g "Em"e/d/c/B/ "Am"A2 Aa|
  "Am"e<A A>B "Em7"e>d B<d|"Am"e<A A>B "Em"G>A B<d|\
  "Am"e<A A>B "Em7"e>d B<d|"Am"e>g "Em"e/d/c/B/ "Am"A2 A||
B|"G"G<g g>a g/^f/e/f/ g2|B<d d>e e/d/c/B/ d2|\
  "Am"e<a a>b c'>a "G"b>g||"Am"e>g "Em"e/d/c/B/ "Am"A2 A>B|
  "G"G<g "C"g>a "G"g/^f/e/f/ g2|B<d d>e e/d/c/B/ d2|\
  "Am"e<a a>b c'>a "G"b>g||"Am"e>g "Em"e/d/c/B/ "Am"A2 A|]
